public/img/icons/light-bulb.svg

<?xml version="1.0" encoding="UTF-8" standalone="no" ?>
<!DOCTYPE svg PUBLIC "-//W3C//DTD SVG 1.1//EN" "http://www.w3.org/Graphics/SVG/1.1/DTD/svg11.dtd">
<svg xmlns="http://www.w3.org/2000/svg" xmlns:xlink="http://www.w3.org/1999/xlink" version="1.1" width="1080" height="1080" viewBox="0 0 1080 1080" xml:space="preserve">
<desc>Created with Fabric.js 5.2.4</desc>
<defs>
</defs>
<g transform="matrix(1 0 0 1 540 540)" id="e0ec9025-30e7-45e2-96f4-1dc1baecd50a"  >
<rect style="stroke: none; stroke-width: 1; stroke-dasharray: none; stroke-linecap: butt; stroke-dashoffset: 0; stroke-linejoin: miter; stroke-miterlimit: 4; fill: rgb(255,255,255); fill-rule: nonzero; opacity: 1; visibility: hidden;" vector-effect="non-scaling-stroke"  x="-540" y="-540" rx="0" ry="0" width="1080" height="1080" />
</g>
<g transform="matrix(1 0 0 1 540 540)" id="ac3ac66c-e21b-4f7e-a0bb-5e862a43bbf0"  >
</g>
<g transform="matrix(1 0 0 1 540 540)"  >
<g style="" vector-effect="non-scaling-stroke"   >
		<g transform="matrix(1 0 0 1 -77.8 -0.05)"  >
<path style="stroke: none; stroke-width: 1; stroke-dasharray: none; stroke-linecap: butt; stroke-dashoffset: 0; stroke-linejoin: miter; stroke-miterlimit: 4; fill: rgb(212,225,244); fill-rule: nonzero; opacity: 1;" vector-effect="non-scaling-stroke"  transform=" translate(-178.25, -255.94)" d="M 222.1 471.6 L 222.1 467.5 L 192.1 467.5 L 192.1 471.6 C 192.2 481.8 200.5 490 210.7 490 L 240.7 490 C 230.5 490 222.2 481.8 222.1 471.6 z M 207.1 355.7 C 150.6 325 115.5 265 115.5 198.89999999999998 C 115.5 150.2 134.3 104.79999999999998 168.5 70.89999999999998 C 196.8 42.89999999999998 232.7 26.09999999999998 271 22.59999999999998 C 266.7 22.19999999999998 262.3 21.99999999999998 257.9 21.89999999999998 C 213.39999999999998 21.39999999999998 170.89999999999998 38.79999999999998 138.49999999999997 70.89999999999998 C 104.29999999999997 104.69999999999997 85.39999999999998 150.2 85.49999999999997 198.89999999999998 C 85.49999999999997 264.9 120.59999999999997 325 177.09999999999997 355.7 C 185.59999999999997 360.4 190.89999999999998 369.4 190.79999999999995 379.09999999999997 L 190.79999999999995 455.5 L 220.79999999999995 455.5 L 220.79999999999995 379.1 C 220.89999999999995 369.40000000000003 215.59999999999997 360.40000000000003 207.09999999999997 355.70000000000005 z" stroke-linecap="round" />
</g>
		<g transform="matrix(1 0 0 1 -130.81 -85.08)"  >
<path style="stroke: none; stroke-width: 1; stroke-dasharray: none; stroke-linecap: butt; stroke-dashoffset: 0; stroke-linejoin: miter; stroke-miterlimit: 4; fill: rgb(81,93,117); fill-rule: nonzero; opacity: 1;" vector-effect="non-scaling-stroke"  transform=" translate(-125.24, -170.91)" d="M 136.9 125.2 C 133.9 123.8 130.3 125 128.9 128 C 116.5 154 110.10000000000001 182.4 110.2 211.2 C 110.2 214.5 112.9 217.2 116.2 217.2 C 119.5 217.2 122.2 214.5 122.2 211.2 C 122.10000000000001 184.2 128.1 157.5 139.7 133.2 C 141.1 130.2 139.89999999999998 126.69999999999999 136.89999999999998 125.19999999999999 z" stroke-linecap="round" />
</g>
		<g transform="matrix(1 0 0 1 2.85 84)"  >
<path style="stroke: none; stroke-width: 1; stroke-dasharray: none; stroke-linecap: butt; stroke-dashoffset: 0; stroke-linejoin: miter; stroke-miterlimit: 4; fill: rgb(243,146,0); fill-rule: nonzero; opacity: 1;" vector-effect="non-scaling-stroke"  transform=" translate(-258.9, -340)" d="M 269.4 361.6 C 265.59999999999997 364.5 253.99999999999997 376.1 253.79999999999998 389.3 L 184.79999999999998 389.3 L 184.79999999999998 401.3 L 333 401.3 L 333 389.3 L 265.9 389.3 C 266.09999999999997 381.6 273.9 373.3 276.59999999999997 371.2 C 290.49999999999994 360.9 297.29999999999995 340.8 293.29999999999995 322.4 C 292.69999999999993 319.59999999999997 291.79999999999995 316.9 290.69999999999993 314.29999999999995 C 294.49999999999994 305.4 295.69999999999993 295.59999999999997 293.99999999999994 286.09999999999997 C 292.99999999999994 279.79999999999995 289.19999999999993 264.2 275.29999999999995 253.79999999999995 C 259.99999999999994 242.29999999999995 238.29999999999995 241.89999999999995 220.19999999999996 252.79999999999995 C 217.39999999999995 254.49999999999994 216.39999999999995 258.19999999999993 218.09999999999997 260.99999999999994 C 219.79999999999995 263.79999999999995 223.49999999999997 264.79999999999995 226.29999999999995 263.09999999999997 C 240.19999999999996 254.69999999999996 256.59999999999997 254.89999999999998 267.99999999999994 263.4 C 278.69999999999993 271.4 281.3999999999999 284.29999999999995 281.99999999999994 288 C 282.69999999999993 292.3 282.69999999999993 296.8 282.09999999999997 301.1 C 279.2 297.90000000000003 276.09999999999997 295.1 272.7 292.5 C 267.8 288.7 259.7 282.4 248.1 282.4 L 248 282.4 C 234 282.4 226.9 288.7 223.4 293.9 C 216.3 304.59999999999997 219.1 318.2 224.8 326.4 C 231.9 336.59999999999997 242.9 338.4 247.10000000000002 339.09999999999997 C 265.1 341.99999999999994 278.6 330.29999999999995 281.90000000000003 327.09999999999997 C 284.00000000000006 340.29999999999995 279.00000000000006 354.49999999999994 269.40000000000003 361.59999999999997 z M 273.9 318.20000000000005 C 273.5 318.70000000000005 262.9 329.50000000000006 249.09999999999997 327.30000000000007 C 245.79999999999995 326.80000000000007 238.89999999999998 325.70000000000005 234.79999999999995 319.6000000000001 C 231.29999999999995 314.50000000000006 229.69999999999996 306.30000000000007 233.49999999999994 300.6000000000001 C 236.19999999999993 296.50000000000006 241.09999999999994 294.50000000000006 248.19999999999993 294.50000000000006 L 248.29999999999993 294.50000000000006 C 255.79999999999993 294.50000000000006 261.19999999999993 298.70000000000005 265.49999999999994 302.1000000000001 C 270.09999999999997 305.4000000000001 273.99999999999994 309.6000000000001 277.19999999999993 314.30000000000007 C 276.19999999999993 315.6000000000001 275.0999999999999 316.9000000000001 273.8999999999999 318.20000000000005 z M 184.8 423.1 L 333 423.1 L 333 435.1 L 184.8 435.1 L 184.8 423.1 z" stroke-linecap="round" />
</g>
		<g transform="matrix(1 0 0 1 0 0)"  >
<path style="stroke: none; stroke-width: 1; stroke-dasharray: none; stroke-linecap: butt; stroke-dashoffset: 0; stroke-linejoin: miter; stroke-miterlimit: 4; fill: rgb(81,93,117); fill-rule: nonzero; opacity: 1;" vector-effect="non-scaling-stroke"  transform=" translate(-256.05, -255.99)" d="M 431.6 147.2 L 425.20000000000005 130.29999999999998 C 409.30000000000007 88.39999999999998 379.20000000000005 53.499999999999986 340.20000000000005 31.399999999999977 L 335.90000000000003 28.99999999999998 L 335.6 28.899999999999977 C 311.6 16.699999999999978 285 10.299999999999976 258.1 9.999999999999979 C 210.40000000000003 9.399999999999979 164.90000000000003 28.09999999999998 130.10000000000002 62.39999999999998 C 112.40000000000002 79.79999999999998 98.40000000000002 100.59999999999998 88.70000000000002 123.49999999999997 C 78.60000000000002 147.39999999999998 73.40000000000002 172.99999999999997 73.50000000000001 198.89999999999998 C 73.50000000000001 269.29999999999995 111.00000000000001 333.5 171.3 366.2 C 176 368.8 178.8 373.7 178.8 379.09999999999997 L 178.8 459.09999999999997 C 178.8 460.7 179.3 462.29999999999995 180.10000000000002 463.59999999999997 L 180.10000000000002 471.59999999999997 C 180.20000000000002 488.4 193.8 501.99999999999994 210.70000000000002 501.99999999999994 L 307.40000000000003 501.99999999999994 C 324.20000000000005 501.99999999999994 337.90000000000003 488.3999999999999 338.00000000000006 471.59999999999997 L 338.00000000000006 463.09999999999997 C 338.70000000000005 461.9 339.00000000000006 460.49999999999994 339.00000000000006 459.09999999999997 L 339.00000000000006 375.9 C 338.90000000000003 370.79999999999995 341.6000000000001 366 346.00000000000006 363.29999999999995 C 403.1000000000001 329.79999999999995 438.6 266.79999999999995 438.6 198.89999999999995 C 438.6 189.29999999999995 437.90000000000003 179.59999999999994 436.5 170.09999999999994 C 435.3 162.39999999999995 433.6 154.69999999999993 431.6 147.19999999999993 z M 307.4 490 L 210.7 490 C 200.5 490 192.2 481.8 192.1 471.6 L 192.1 467.5 L 326 467.5 L 326 471.6 C 325.9 481.8 317.6 490 307.4 490 z M 339.79999999999995 352.9 C 331.79999999999995 357.7 326.9 366.4 326.9 375.79999999999995 L 326.9 455.49999999999994 L 190.8 455.49999999999994 L 190.8 379.0999999999999 C 190.9 369.3999999999999 185.60000000000002 360.3999999999999 177.10000000000002 355.69999999999993 C 120.6 325 85.5 265 85.5 198.9 C 85.5 150.2 104.3 104.80000000000001 138.5 70.9 C 171 38.800000000000004 213.4 21.400000000000006 257.9 21.900000000000006 C 283 22.100000000000005 307.7 28.100000000000005 330.09999999999997 39.400000000000006 L 334.29999999999995 41.800000000000004 C 370.9 62.400000000000006 398.99999999999994 95.2 413.9 134.5 L 420 150.6 C 421.9 157.6 423.4 164.6 424.4 171.79999999999998 C 425.7 180.79999999999998 426.4 189.79999999999998 426.4 198.79999999999998 C 426.5 262.5 393.29999999999995 321.59999999999997 339.79999999999995 352.9 z" stroke-linecap="round" />
</g>
</g>
</g>
<g transform="matrix(1 0 0 1 540.5 599.83)" style="" id="fc949a6c-8b1c-4f95-b1b3-b3e0ffb4191a"  >
		<text xml:space="preserve" font-family="Raleway" font-size="105" font-style="normal" font-weight="900" style="stroke: none; stroke-width: 1; stroke-dasharray: none; stroke-linecap: butt; stroke-dashoffset: 0; stroke-linejoin: miter; stroke-miterlimit: 4; fill: rgb(0,0,0); fill-rule: nonzero; opacity: 1; white-space: pre;" ><tspan x="-226.38" y="-26.34" style="white-space: pre; ">thinking </tspan><tspan x="-160.55" y="92.31" >brain?</tspan></text>
</g>
</svg>

<svg version="1.1" id="Layer_1" xmlns="http://www.w3.org/2000/svg" x="0" y="0" viewBox="0 0 512 512" style="enable-background:new 0 0 512 512" xml:space="preserve"><style>.st0{fill:#d4e1f4}.st1{fill:#515d75}.st2{fill:#f39200}</style><path class="st0" d="M222.1 471.6v-4.1h-30v4.1c.1 10.2 8.4 18.4 18.6 18.4h30c-10.2 0-18.5-8.2-18.6-18.4zM207.1 355.7c-56.5-30.7-91.6-90.7-91.6-156.8 0-48.7 18.8-94.1 53-128 28.3-28 64.2-44.8 102.5-48.3-4.3-.4-8.7-.6-13.1-.7-44.5-.5-87 16.9-119.4 49-34.2 33.8-53.1 79.3-53 128 0 66 35.1 126.1 91.6 156.8 8.5 4.7 13.8 13.7 13.7 23.4v76.4h30v-76.4c.1-9.7-5.2-18.7-13.7-23.4z"/><path class="st1" d="M136.9 125.2c-3-1.4-6.6-.2-8 2.8-12.4 26-18.8 54.4-18.7 83.2 0 3.3 2.7 6 6 6s6-2.7 6-6c-.1-27 5.9-53.7 17.5-78 1.4-3 .2-6.5-2.8-8z"/><path class="st2" d="M269.4 361.6c-3.8 2.9-15.4 14.5-15.6 27.7h-69v12H333v-12h-67.1c.2-7.7 8-16 10.7-18.1 13.9-10.3 20.7-30.4 16.7-48.8-.6-2.8-1.5-5.5-2.6-8.1 3.8-8.9 5-18.7 3.3-28.2-1-6.3-4.8-21.9-18.7-32.3-15.3-11.5-37-11.9-55.1-1-2.8 1.7-3.8 5.4-2.1 8.2 1.7 2.8 5.4 3.8 8.2 2.1 13.9-8.4 30.3-8.2 41.7.3 10.7 8 13.4 20.9 14 24.6.7 4.3.7 8.8.1 13.1-2.9-3.2-6-6-9.4-8.6-4.9-3.8-13-10.1-24.6-10.1h-.1c-14 0-21.1 6.3-24.6 11.5-7.1 10.7-4.3 24.3 1.4 32.5 7.1 10.2 18.1 12 22.3 12.7 18 2.9 31.5-8.8 34.8-12 2.1 13.2-2.9 27.4-12.5 34.5zm4.5-43.4c-.4.5-11 11.3-24.8 9.1-3.3-.5-10.2-1.6-14.3-7.7-3.5-5.1-5.1-13.3-1.3-19 2.7-4.1 7.6-6.1 14.7-6.1h.1c7.5 0 12.9 4.2 17.2 7.6 4.6 3.3 8.5 7.5 11.7 12.2-1 1.3-2.1 2.6-3.3 3.9zM184.8 423.1H333v12H184.8v-12z"/><path class="st1" d="m431.6 147.2-6.4-16.9c-15.9-41.9-46-76.8-85-98.9l-4.3-2.4-.3-.1c-24-12.2-50.6-18.6-77.5-18.9-47.7-.6-93.2 18.1-128 52.4-17.7 17.4-31.7 38.2-41.4 61.1-10.1 23.9-15.3 49.5-15.2 75.4 0 70.4 37.5 134.6 97.8 167.3 4.7 2.6 7.5 7.5 7.5 12.9v80c0 1.6.5 3.2 1.3 4.5v8c.1 16.8 13.7 30.4 30.6 30.4h96.7c16.8 0 30.5-13.6 30.6-30.4v-8.5c.7-1.2 1-2.6 1-4v-83.2c-.1-5.1 2.6-9.9 7-12.6 57.1-33.5 92.6-96.5 92.6-164.4 0-9.6-.7-19.3-2.1-28.8-1.2-7.7-2.9-15.4-4.9-22.9zM307.4 490h-96.7c-10.2 0-18.5-8.2-18.6-18.4v-4.1H326v4.1c-.1 10.2-8.4 18.4-18.6 18.4zm32.4-137.1c-8 4.8-12.9 13.5-12.9 22.9v79.7H190.8v-76.4c.1-9.7-5.2-18.7-13.7-23.4C120.6 325 85.5 265 85.5 198.9c0-48.7 18.8-94.1 53-128 32.5-32.1 74.9-49.5 119.4-49 25.1.2 49.8 6.2 72.2 17.5l4.2 2.4c36.6 20.6 64.7 53.4 79.6 92.7l6.1 16.1c1.9 7 3.4 14 4.4 21.2 1.3 9 2 18 2 27 .1 63.7-33.1 122.8-86.6 154.1z"/></svg>
